X:28
T:Meadow Clover 1933
T:(1925 Canon) 
C:Louis Lavater 1867-1953
S:nla.obj-171131563
O:Australia
R:Lullaby
M:4/4
L:1/8
K:Cmaj
[I:MIDI=program 59]E2EDF2(EF) | G3F(A2G2) | E2E D F3 B, | 
w:Where go the sweets when* blos-soms lie*scat-tered the green sward
(C2G4F2) | E2z6|c2 BA G3F | E2z6 | 
w:o-**ver, Can all these o-dours die
A2 ^G F E3 D | C2B,2z4 | ^G2G2(AF) (DA,)|
w:Fade with the mead-ow clo-ver, Can these breath*-ing
C2B,2(CD) E^F | (^F2G2A2)A2 | (D2G4^F)|  [1}G2z2 G=FED:|  [2G4z4|]
w:o-dours fade* with the mead-**ow clo-**ver?


